X:0117
T:The Royal Glasgow Volunteers Farewell.
M:6/8
L:1/8
Q:3/8=88
P:ABA % Aird uses a da capo
I: :: || DC
Z:Jack Campin * www.campin.me.uk * 2009
K:G
P:A
 D    |G2G G2B|A>BG AFD|G2G  GBd |d>cB B2A        |
       G2G G2B|A>BG AFD|G>Bd e>fg|B>AB G2        :|
P:B
(B/c/)|d2B G2A|d>ge dBG|c2e  A2c |d>BG AFD        |
       G2B-B2c|d2e  f2g|f>ed e>dc|d2d (d/>c/B/A/)||

